!!!OTL: "Altdeutsches Kampflied" WIR STEHEN HIER ZUR SCHLACHT BEREIT
!!!ARE: Europa, Mitteleuropa, Deutschland, Rhein
!!!SCT: Z1132
!!!YEM: Copyright 1995, estate of Helmut Schaffrath.
**kern
*ICvox
*Ivox
*M3/4
*k[f#]
*e:
{8e
8f#
=1
8gn
8a
4b
4a
=2
4.b
8a
4gn
=3
4a
4b
4a
=4
2b}
{4gn
=5
4a
4b
4a
=6
2b}
{4b
=7
4b
4a
8b
8ccn
=8
4.ddn
8ccn
8b
8a
=9
2b
4a
=10
2gn}
{8b
8gn
=11
4a
4b
8a
8gn
=12
4f#
4e}
{8b
8gn
=13
4a
4b
8a
8gn
=14
4f#
4e}
{8f#
8gn
=15
4a
4gn
4f#
=16
2e}
==
!!!AGN: Vaterland und Wehr
!!!ONB: ESAC (Essen Associative Code) Database: ZUCCAL
!!!AMT: simple triple
!!!AIN: vox
!!!EED: Helmut Schaffrath
!!!EEV: 1.0
*-
